Newaita-dark/emblems/48/emblem-encrypted-locked.svg

<svg height="48" viewBox="0 0 48 48" width="48" xmlns="http://www.w3.org/2000/svg"><path d="m392.462522-100.719247c-37.329769-37.329768-95.740858-38.996276-130.987492-3.749642-30.372099 30.3721-33.33015 77.95089-9.665743 114.405742l-45.578981 45.620643-90.658009 90.65801c-8.290875 8.290875-8.290875 21.664597 0 29.955472s21.622935 8.290875 29.91381 0l7.499284-7.499283 22.456188 22.456188c8.290875 8.290875 21.247971 8.66584 29.038894.874917l1.749833-1.749833c7.790923-7.832585 7.415958-20.789681-.874916-29.080556l-22.456189-22.456189 37.413094-37.413094 7.499283 7.499284c8.290875 8.290875 21.247971 8.665839 29.038894.874916l1.749833-1.749833c7.832585-7.790922 7.415958-20.748018-.874917-29.038893l-7.457621-7.499284 31.496992-31.496992c36.454853 23.664406 84.033642 20.706356 114.405742-9.665744 35.246634-35.246634 33.580127-93.657723-3.707979-130.945829zm-29.955473 29.91381c20.748019 20.748019 22.581177 52.245011 4.166269 70.659919l-.874917.874917c-18.414908 18.414908-49.9119 16.540087-70.618256-4.166269-20.748019-20.748019-22.62284-52.245011-4.207931-70.659919l.874916-.874916c18.414908-18.414908 49.953563-16.540088 70.659919 4.166268zm0 0" fill="none" stroke="#424242" stroke-linecap="round" stroke-linejoin="round" stroke-width="82" transform="matrix(.093759 0 0 .093759 0 20.158175)"/><path d="m36.796875 10.714844c-3.5-3.5-8.976563-3.65625-12.28125-.351563-2.847656 2.847657-3.125 7.308594-.90625 10.726563l-4.273437 4.277344-8.5 8.5c-.777344.777343-.777344 2.03125 0 2.808593.777343.777344 2.027343.777344 2.804687 0l.703125-.703125 2.105469 2.105469c.777343.777344 1.992187.8125 2.722656.082031l.164063-.164062c.730468-.734375.695312-1.949219-.082032-2.726563l-2.105468-2.105469 3.507812-3.507812.703125.703125c.777344.777344 1.992187.8125 2.722656.082031l.164063-.164062c.734375-.730469.695312-1.945313-.082032-2.722656l-.699218-.703126 2.953125-2.953124c3.417969 2.21875 7.878906 1.941406 10.726562-.90625 3.304688-3.304688 3.148438-8.78125-.347656-12.277344zm-2.808594 2.804687c1.945313 1.945313 2.117188 4.898438.390625 6.625l-.082031.082031c-1.726563 1.726563-4.679687 1.550782-6.621094-.390624-1.945312-1.945313-2.121093-4.898438-.394531-6.625l.082031-.082032c1.726563-1.726562 4.683594-1.550781 6.625.390625zm0 0" fill="#fafafa"/></svg>

<?xml version="1.0" encoding="UTF-8"?>
<svg xmlns="http://www.w3.org/2000/svg" xmlns:xlink="http://www.w3.org/1999/xlink" width="48px" height="48px" viewBox="0 0 48 48" version="1.1">
<g id="surface1">
<path style="fill:none;stroke-width:82;stroke-linecap:round;stroke-linejoin:round;stroke:rgb(25.882354%,25.882354%,25.882354%);stroke-opacity:1;stroke-miterlimit:4;" d="M 392.462522 -100.719247 C 355.132753 -138.049015 296.721664 -139.715523 261.47503 -104.468889 C 231.102931 -74.096789 228.14488 -26.517999 251.809287 9.936853 L 206.230306 55.557496 L 115.572297 146.215506 C 107.281422 154.506381 107.281422 167.880103 115.572297 176.170978 C 123.863172 184.461853 137.195232 184.461853 145.486107 176.170978 L 152.985391 168.671695 L 175.441579 191.127883 C 183.732454 199.418758 196.68955 199.793723 204.480473 192.0028 L 206.230306 190.252967 C 214.021229 182.420382 213.646264 169.463286 205.35539 161.172411 L 182.899201 138.716222 L 220.312295 101.303128 L 227.811578 108.802412 C 236.102453 117.093287 249.059549 117.468251 256.850472 109.677328 L 258.600305 107.927495 C 266.43289 100.136573 266.016263 87.179477 257.725388 78.888602 L 250.267767 71.389318 L 281.764759 39.892326 C 318.219612 63.556732 365.798401 60.598682 396.170501 30.226582 C 431.417135 -5.020052 429.750628 -63.431141 392.462522 -100.719247 Z M 362.507049 -70.805437 C 383.255068 -50.057418 385.088226 -18.560426 366.673318 -0.145518 L 365.798401 0.729399 C 347.383493 19.144307 315.886501 17.269486 295.180145 -3.43687 C 274.432126 -24.184889 272.557305 -55.681881 290.972214 -74.096789 L 291.84713 -74.971705 C 310.262038 -93.386613 341.800693 -91.511793 362.507049 -70.805437 Z M 362.507049 -70.805437 " transform="matrix(0.093759,0,0,0.093759,0,20.158175)"/>
<path style=" stroke:none;fill-rule:nonzero;fill:rgb(98.039216%,98.039216%,98.039216%);fill-opacity:1;" d="M 36.796875 10.714844 C 33.296875 7.214844 27.820312 7.058594 24.515625 10.363281 C 21.667969 13.210938 21.390625 17.671875 23.609375 21.089844 L 19.335938 25.367188 L 10.835938 33.867188 C 10.058594 34.644531 10.058594 35.898438 10.835938 36.675781 C 11.613281 37.453125 12.863281 37.453125 13.640625 36.675781 L 14.34375 35.972656 L 16.449219 38.078125 C 17.226562 38.855469 18.441406 38.890625 19.171875 38.160156 L 19.335938 37.996094 C 20.066406 37.261719 20.03125 36.046875 19.253906 35.269531 L 17.148438 33.164062 L 20.65625 29.65625 L 21.359375 30.359375 C 22.136719 31.136719 23.351562 31.171875 24.082031 30.441406 L 24.246094 30.277344 C 24.980469 29.546875 24.941406 28.332031 24.164062 27.554688 L 23.464844 26.851562 L 26.417969 23.898438 C 29.835938 26.117188 34.296875 25.839844 37.144531 22.992188 C 40.449219 19.6875 40.292969 14.210938 36.796875 10.714844 Z M 33.988281 13.519531 C 35.933594 15.464844 36.105469 18.417969 34.378906 20.144531 L 34.296875 20.226562 C 32.570312 21.953125 29.617188 21.777344 27.675781 19.835938 C 25.730469 17.890625 25.554688 14.9375 27.28125 13.210938 L 27.363281 13.128906 C 29.089844 11.402344 32.046875 11.578125 33.988281 13.519531 Z M 33.988281 13.519531 "/>
</g>
</svg>
